X: 13
T: Prince George
%R: reel
B: Kitty Bridges "Collection of Country Dances 1745" p.13
F: http://www.vwml.org/browse/browse-collections-dance-tune-books/browse-bridges1745
Z: 2015 John Chambers <jc:trillian.mit.edu>
N: This tune has no time signature.
M: none
L: 1/16
K: Gm
% - - - - - - - - - - - - - - - - - - - - - - - - - - - - -
|:\
G2B2 A2d2 B2AG ^F2=ED | G2B2A2d2 B3A G3D :|\
|:\
B2d2c2f2 {e}d2cB c2F2 | B2G2e2d2 Tc4 B4 |\
A2AB c2BA d2G2^F2g2 | gfed edcB TA4 G4 :|
% - - - - - - - - - - Dance description - - - - - - - - - -
%%center Prince George
%%begintext align
%%   Set to your Part.r cast off and turn
%% the third Wom.n w.th your right Hand fall
%% back w.th the 3d Coup.l and foot it, your Part.r
%% at the same time turn the 2d Man & fall
%% back w.th the 1st Coup.l and foot it, The
%% Reverse, foot it to your Part.r and turn.
%%endtext

%%sep 1 1 500
%%sep 1 1 500

